src/images/account.svg

<svg width="26" height="30" viewBox="0 0 26 30" fill="none" xmlns="http://www.w3.org/2000/svg">
<rect width="26" height="30" rx="4" fill="#F9F9F9"/>
<path fill-rule="evenodd" clip-rule="evenodd" d="M15.5 12C15.5 13.3807 14.3807 14.5 13 14.5C11.6193 14.5 10.5 13.3807 10.5 12C10.5 10.6193 11.6193 9.5 13 9.5C14.3807 9.5 15.5 10.6193 15.5 12ZM17 12C17 14.2091 15.2091 16 13 16C10.7909 16 9 14.2091 9 12C9 9.79086 10.7909 8 13 8C15.2091 8 17 9.79086 17 12ZM11 17.25C8.92893 17.25 7.25 18.9289 7.25 21V22H8.75V21C8.75 19.7574 9.75736 18.75 11 18.75H15C16.2426 18.75 17.25 19.7574 17.25 21V22H18.75V21C18.75 18.9289 17.0711 17.25 15 17.25H11Z" fill="black"/>
</svg>

<svg width="26" height="30" fill="none" xmlns="http://www.w3.org/2000/svg"><rect width="26" height="30" rx="4" fill="#F9F9F9"/><path fill-rule="evenodd" clip-rule="evenodd" d="M15.5 12a2.5 2.5 0 1 1-5 0 2.5 2.5 0 0 1 5 0zm1.5 0a4 4 0 1 1-8 0 4 4 0 0 1 8 0zm-6 5.25A3.75 3.75 0 0 0 7.25 21v1h1.5v-1A2.25 2.25 0 0 1 11 18.75h4A2.25 2.25 0 0 1 17.25 21v1h1.5v-1A3.75 3.75 0 0 0 15 17.25h-4z" fill="#000"/></svg>
